X:26
T:Old Hag in the Kiln, The
T:Dinny Delaney's
R:slide
H:Parts 3 and 4 are optional.
Z:id:hn-slide-26
M:6/8
K:Dmix
A2D ~D3|A2G EFG|A2D ~D3|G2A GED|A2D ~D3|c2d e2d|dcA AGE|G2A GED:|
|:dcA AGE|c3 ABc|dcA AGE|G2A GED|dcA AGE|c2d e2d|dcA AGE|G2A GED:|
|:A2D ~D3|A2B G2B|A2B G2A|E2E GED|A2D ~D3|c2d e2d|dcA AGE|G2A GED:|
|:dcA AGE|c3 ABc|dcA AGE|G2A GED|dcA AGE|c2d e2d|dcA AGE|G2A GED:|
<end>
<start>
